svg/area_chart.svg

<svg xmlns="http://www.w3.org/2000/svg" viewBox="0 0 32 32" enable-background="new 0 0 32 32"><path d="M 28 4.0625 L 26.375 5.3125 L 21.75 8.9375 L 16.15625 8 L 15.78125 7.9375 L 15.4375 8.15625 L 9.75 11.9375 L 5.1875 11.03125 L 4 10.78125 L 4 12 L 4 16.53125 L 4 18 L 4 20 L 4 27 L 4 28 L 5 28 L 27 28 L 28 28 L 28 27 L 28 16 L 28 14 L 28 11.90625 L 28 6.09375 L 28 4.0625 z M 26 8.15625 L 26 13.53125 L 21.78125 16.875 L 16.3125 15.0625 L 15.84375 14.90625 L 15.4375 15.15625 L 9.875 18.875 L 6 17.3125 L 6 13.21875 L 9.8125 13.96875 L 10.21875 14.0625 L 10.5625 13.84375 L 16.21875 10.0625 L 21.84375 11 L 22.28125 11.0625 L 22.625 10.78125 L 26 8.15625 z M 26 16.09375 L 26 26 L 6 26 L 6 20 L 6 19.5 L 9.625 20.9375 L 10.125 21.125 L 10.5625 20.84375 L 16.1875 17.09375 L 21.6875 18.9375 L 22.1875 19.125 L 22.625 18.78125 L 26 16.09375 z" color="#000" overflow="visible" enable-background="accumulate"/></svg>

<svg xmlns="http://www.w3.org/2000/svg" viewBox="0 0 32 32"><path d="M28 4.063l-1.625 1.25-4.625 3.625L16.156 8l-.375-.063-.342.22-5.688 3.78-4.563-.906L4 10.78V28h24V4.062zm-2 4.093v5.375l-4.22 3.345-5.468-1.813-.468-.156-.406.25-5.563 3.72L6 17.31V13.22l3.813.75.406.092.342-.218 5.657-3.78 5.624.936.437.063.345-.282L26 8.157zm0 7.938V26H6v-6.5l3.625 1.438.5.187.438-.28 5.624-3.75 5.5 1.843.5.187.438-.344L26 16.095z"/></svg>
